X:1
T:Jubilate!
T:Jubilate!
T:John Harrison Tenney
T:Julia Caroline Ripley Dorr, 1888
T:Public Domain, Courtesy of the Cyber Hymnal™
T:Public Domain, Courtesy of the Cyber Hymnal™
C:John Harrison Tenney
Z:Public Domain,
Z:Courtesy of the Cyber Hymnal™
%%score ( 1 2 ) ( 3 4 )
L:1/8
Q:1/4=110
M:4/4
K:Eb
V:1 treble 
V:2 treble 
V:3 bass 
V:4 bass 
V:1
 [EG]2 [FA]2 ([GB]>[Ac]) [GB]2 | [EG]2 [DA]2 (B>c) [EB]2 | [Ad]2 (cd) [Ge]2 ([EB][FA]) | %3
w: 1.~Ju- bi- la- * te!|Ju- bi- la- * te!|Christ the * Lord is *|
w: 2.~Wak- en, ros- * es,|from your slum- * ber!|Lil- ies, * wake to *|
 [EG]2 [DF]2 E4 |"^Duet" (FB) ([DB][Ec]) [Fd]2 [DB]2 | ([Ec][DB]) ([Ec][C=A]) ([DB]>[Ec]) [Fd]2 | %6
w: risen to- day!|Hear * the * might- y|cho- * rus * swell- * ing,|
w: greet your Lord!|Hap- * py * birds in|wild- * wood * arch- * es,|
 (FB) ([DB][Ec]) [Fd]2 [DB]2 | ([Ec][DB]) ([Ec][C=A]) [DB]4 | %8
w: O- * ver * land and|o- * ver * sea!|
w: Wake * to * sing in|sweet * ac- * cord!|
 [GB]2 ([FA][EG]) ([DF][EG]) ([FA][Ac]) | [Ac]2 ([GB][^F=A]) ([GB]>[=F_A]) [EG]2 | %10
w: Riv- er * un- * to *|riv- er * call- * ing,|
w: Lift your * voic- * es, *|O ye * ma- * ples!|
 [GB]2 ([FA][EG]) ([DF][EG]) ([FA][DF]) | [EG]2 [E=A]2 [DB]4 x2 ||"^Solo" B2 (3(cde) B2 G2 | %13
w: Mount- ain * peak * to *|dist- ant lea!|Ju- bi- * * la- te!|
w: Sing a- * loud, * ye *|state- ly pines!||
 A2 (Fc) (B>A) G2 | B2 (3(cde) B2 G2 | B2 (AF) E4 |"^Chorus" [EG]2 [FB]2 [Ee]2 d2 | %17
w: Ju- bi- * la- * te!|Christ the * * Lord is|risen to- * day!|Ju- bi- la- te!|
w: ||||
 (ce) (dc) ([GB]>[FA]) [EG]2 | [Ge]2 [Fd]2 [Ec]2 [Ee]2 | [EG]2 [DF]2 E4 |] %20
w: Ju- * bi- * la- * te!|Christ the Lord is|risen to- day!|
w: |||
V:2
 x8 | x4 E2 x2 | x2 A2 x4 | x4 E4 | D2 x6 | x8 | D2 x6 | x8 | x8 | x8 | x8 | x10 || x8 | x8 | x8 | %15
 x8 | x6 (GF) | E2 A2 x4 | x8 | x4 E4 |] %20
V:3
 z8 | [E,B,]2 [F,B,]2 ([G,B,]>[A,E]) [G,B,]2 | [F,B,]2 [B,,B,]2 [E,B,]2 ([G,B,][A,C]) | %3
 B,2 [B,,A,]2 [E,G,]4 | %4
 ([B,,D,F,][B,,D,F,]) ([B,,D,F,][B,,D,F,]) ([B,,D,F,][B,,D,F,]) ([B,,D,F,][B,,D,F,]) | %5
 ([F,,A,,C,F,][F,,A,,C,F,]) [F,,A,,C,F,][F,,A,,C,F,] ([B,,D,F,][B,,D,F,]) ([B,,D,F,][B,,D,F,]) | %6
 ([B,,D,F,][B,,D,F,]) ([B,,D,F,][B,,D,F,]) ([B,,D,F,][B,,D,F,]) ([B,,D,F,][B,,D,F,]) | %7
 ([F,,A,,C,F,][F,,A,,C,F,]) ([F,,A,,C,F,][F,,A,,C,F,]) [B,,D,F,]4 | %8
 [E,E]2 [E,B,]2 [B,,B,]2 [B,,D]2 | [E,E]2 [E,E]2 [E,E]2 [E,B,]2 | %10
 [E,E]2 [E,B,]2 [B,,B,]2 [B,,B,]2 | [E,B,]2 [C,F,]2 F,4 (C,D,) || %12
 [E,G,B,]2 [E,^F,=A,]2 [E,G,B,]2 [E,G,B,]2 | [B,,D,F,B,]2 [B,,D,F,B,]2 [E,G,B,]2 [E,G,B,]2 | %14
 [E,G,B,]2 [E,^F,=A,]2 [E,G,B,]2 [E,G,B,]2 | [B,,D,F,B,]2 [B,,D,F,B,]2 [E,G,B,]4 | %16
 [E,B,]2 [D,B,]2 [C,C]2 [G,=B,]2 | [A,C]2 [A,C]2 [E,E]2 [E,B,]2 | [E,B,]2 [G,=B,]2 [A,C]2 [=A,C]2 | %19
 B,2 [B,,A,]2 [E,G,]4 |] %20
V:4
 x8 | x8 | x8 | B,2 x6 | x8 | x8 | x8 | x8 | x8 | x8 | x8 | x4 (B,,2- B,,2) x2 || x8 | x8 | x8 | %15
 x8 | x8 | x8 | x8 | B,2 x6 |] %20

